X:281
T: Hab ich schon ein scheeles Aug (3-83), S. 231
N: P1056
O: Lothringen
S: PINCK, Louis: Verklingende Weisen, Bd3, Metz 1933]
R: ???]
M: 2/4
L: 1/16
K: Bb
 | F2F2B2A2 | G2G2c4 | A3GF2F2 | B4z2
F2 | F2F2B2A2 | G2G2c4 | A3GF2F2 | B4z2
cc | c2c2f2f2 | d3cB2B2 | d2c2B4 |
F2F2B2A2 | G2G2c2c2 | d3dc2c2 | B8

@@@ Tune index: 7831
